src/lib/illus/turtle.svg

<svg xmlns="http://www.w3.org/2000/svg" width="117" height="136" viewBox="0 0 117 136" fill="none">
  <path d="M86.7179 97.4533C73.1946 114.787 49.4906 118.963 33.7737 106.78C18.0568 94.5981 16.2785 70.6708 29.8018 53.3372C43.3251 36.0037 67.029 31.8278 82.746 44.0101C98.4629 56.1924 100.241 80.1198 86.7179 97.4533Z" fill="#A9BAFF"/>
  <path d="M33.929 59.807C46.5748 43.5983 68.2869 39.3417 82.4244 50.2995C96.5618 61.2576 97.771 83.281 85.1252 99.4898C73.5982 114.265 49.2738 117.843 36.6299 108.997C26.1965 100.91 22.8049 86.7961 26.8266 73.4406C26.7501 73.2835 26.6766 73.1246 26.6065 72.9639C26.2099 72.0547 25.9146 71.0895 25.7072 70.0911C23.9964 74.2315 21.4287 81.2297 22.9278 91.8481C22.316 90.1743 21.8305 88.4496 21.4721 86.6892C21.2339 77.383 24.0791 71.4011 25.4141 68.1445C25.0972 64.9148 25.5471 61.452 26.3869 58.3952C27.1129 57.1404 27.9099 55.9084 28.7772 54.7046C27.1509 58.313 25.9521 63.5198 26.4391 68.1693C26.5791 69.506 26.8579 70.7884 27.3006 71.9683C28.7541 67.7397 30.9597 63.6131 33.929 59.807Z" fill="#8099FF"/>
  <path d="M105.656 70.0464L92.6279 73.969L92.6317 104.283L98.9311 102.382L101.919 103.902L105.656 70.0464Z" fill="#6CC5AE"/>
  <path d="M98.5525 68.9592L85.5241 72.8818L76.6035 91.315L77.444 104.622L93.786 104.866L98.5525 68.9592Z" fill="#B0EBDB"/>
  <path d="M104.045 72.8216L99.256 72.2905L94.998 102.906L100.396 102.072L104.045 72.8216Z" fill="white"/>
  <path d="M100.571 69.4767L95.9624 102.085C96.8913 101.803 97.7668 101.648 98.6657 101.643C99.6853 101.638 100.69 101.827 101.792 102.191L105.62 70.0458L107.395 70.5974L103.314 104.727L102.213 104.282C100.777 103.701 99.7005 103.453 98.6752 103.458C97.6485 103.464 96.5941 103.723 95.1997 104.283L93.7471 104.866L98.4958 68.9182L100.571 69.4767Z" fill="#DCF6EF"/>
  <path d="M113.319 94.5426C114.686 89.5698 112.436 77.6423 107.073 74.1204C87.69 91.2737 80.0454 95.8474 113.319 94.5426Z" fill="#A9BAFF"/>
  <path d="M58.1563 0.0270475C60.8319 -0.264049 60.5532 1.85144 59.9101 3.63412C55.965 14.569 50.8733 26.5893 46.6007 37.3863L50.4546 51.6749C50.4643 51.6704 50.4742 51.666 50.4839 51.6616C50.5848 55.788 49.7449 59.9225 42.9168 63.1463C49.6256 61.1228 54.3961 53.9414 54.1027 50.2309C55.6092 49.731 57.1226 49.3465 58.6288 49.0815C60.2766 49.6997 61.7964 50.5216 63.3938 51.6036C63.2315 51.3693 63.0773 51.1317 62.9343 50.8885C62.0186 49.3318 61.5125 47.5939 61.338 45.3006C61.0338 41.3029 61.4836 38.3373 62.9218 35.921C64.3418 33.5357 66.6827 31.7581 70.0035 30.0315C71.7835 27.5724 74.5591 25.9216 77.7768 25.0448C79.2756 21.7927 82.5642 19.5261 86.3912 19.5064C91.0719 19.4827 94.9815 22.8276 95.8075 27.2584C95.9922 27.3551 96.1764 27.4535 96.3585 27.555C98.9964 29.0254 101.355 30.9992 103.156 33.4737C104.309 32.9706 105.583 32.6882 106.922 32.6813C112.185 32.6546 116.472 36.8854 116.5 42.1303C116.526 47.3755 112.282 51.649 107.02 51.6759C106.614 51.678 106.214 51.6541 105.821 51.6071C105.111 54.3289 103.968 57.2467 102.326 60.3578L102.211 60.5747L85.3792 63.7376L85.2957 63.753L85.2123 63.7411C85.0382 63.716 84.8652 63.6884 84.6931 63.6614C87.9532 73.393 85.5045 86.0413 77.3506 96.4929C77.0544 96.8726 76.7526 97.2451 76.4473 97.6116C81.264 104.029 83.1605 109.53 83.854 116.913C78.9118 121.301 75.4852 123.396 63.9999 124.127C63.3537 119.105 61.9379 114.844 59.7988 109.711C54.385 111.745 48.8312 112.288 43.7957 111.173L43.8081 111.188L31.7681 123.109C18.9954 124.172 15.0738 113.823 20.4385 104.723L28.0205 96.9327C24.6555 87.1738 27.0814 74.42 35.2935 63.8941C36.3952 62.4821 37.5616 61.1604 38.7802 59.933C29.0777 48.7328 23.9535 40.6349 21.1415 33.2657C20.1661 25.8092 43.7832 6.37108 51.795 2.33916C53.9986 1.23021 56.4299 0.214969 58.1563 0.0270475Z" fill="#DAE0FD"/>
  <path d="M46.3329 68.8234C41.1305 75.7393 38.6623 78.1086 33.727 75.9466C17.9899 96.7211 39.2447 122.462 62.9186 112.668C77.1332 106.788 88.5079 87.2953 88.5079 71.5312C88.0614 67.1036 84.8667 65.0489 80.5517 66.3872C81.3208 58.2042 74.3977 55.518 67.8183 61.0217C65.0836 54.2008 56.925 52.315 46.3329 68.8234Z" fill="#A9BAFF"/>
  <path d="M65.2499 100.487C66.0928 100.487 66.7761 101.169 66.7761 102.009C66.7761 102.849 66.0928 103.53 65.2499 103.53C65.1019 103.53 64.9589 103.508 64.8236 103.469L60.5251 109.139C60.1994 109.569 59.6905 109.822 59.1504 109.822H55.7327L52.2048 114.304C51.7834 114.299 51.3651 114.283 50.9498 114.256L55.2374 108.807H59.1504C59.3715 108.807 59.5799 108.704 59.7133 108.528L63.9969 102.876C63.825 102.63 63.7236 102.331 63.7236 102.009C63.7236 101.169 64.407 100.488 65.2499 100.487Z" fill="white"/>
  <path d="M76.6013 79.0946C77.4442 79.0946 78.1275 79.7757 78.1275 80.6159C78.1275 81.456 77.4442 82.1371 76.6013 82.1371C76.5026 82.1371 76.406 82.1272 76.3126 82.1094L67.6754 94.8124C67.4035 95.212 66.9753 95.4791 66.4959 95.5483L58.5 96.7021L46.2171 113.474C45.8687 113.379 45.5237 113.277 45.1822 113.167L57.7975 95.942L64.2865 86.5737C64.0864 86.3163 63.9661 85.994 63.9661 85.6432C63.9661 84.8031 64.6495 84.122 65.4923 84.1219C66.3352 84.1219 67.0186 84.803 67.0186 85.6432C67.0185 86.4833 66.3352 87.1645 65.4923 87.1645C65.3718 87.1644 65.2546 87.1492 65.1421 87.1229L59.2969 95.5621L66.3498 94.5445C66.5461 94.5162 66.7219 94.407 66.8332 94.2434L75.4337 81.5949C75.2102 81.3303 75.075 80.9889 75.075 80.6159C75.075 79.7758 75.7584 79.0947 76.6013 79.0946Z" fill="white"/>
  <path d="M63.2824 67.998C64.1254 67.998 64.8087 68.6791 64.8087 69.5193C64.8087 70.3595 64.1253 71.0406 63.2824 71.0406C63.1078 71.0406 62.9404 71.0097 62.7841 70.9559L49.4946 88.8531C49.3769 89.0118 49.3315 89.2126 49.3694 89.4062L50.5866 95.6077C50.6799 96.0827 50.5677 96.5753 50.2776 96.9636L39.9681 110.762C39.6787 110.584 39.3932 110.4 39.1125 110.209L49.4613 96.3579C49.5801 96.199 49.6262 95.9973 49.588 95.8028L48.3708 89.6014C48.2779 89.1281 48.3891 88.6371 48.6769 88.2494L52.0736 83.6747L49.2358 78.3072C48.9478 77.7626 48.9831 77.1042 49.3277 76.5933L51.4288 73.478C51.2353 73.223 51.1192 72.9062 51.1192 72.5619C51.1192 71.7218 51.8027 71.0407 52.6455 71.0406C53.4884 71.0406 54.1717 71.7217 54.1717 72.5619C54.1717 73.402 53.4883 74.0831 52.6455 74.0831C52.5186 74.0831 52.3957 74.0657 52.2778 74.0366L50.1718 77.1588C50.0361 77.3601 50.0221 77.6198 50.1355 77.8343L52.7458 82.77L61.9882 70.323C61.8421 70.0897 61.7562 69.8147 61.7562 69.5193C61.7562 68.6792 62.4396 67.9982 63.2824 67.998Z" fill="white"/>
  <path d="M41.22 94.3831C42.063 94.3831 42.7463 95.0641 42.7463 95.9043C42.7461 96.7444 42.0629 97.4256 41.22 97.4256C41.0729 97.4255 40.9309 97.4034 40.7963 97.3647L34.1835 105.749C34.1016 105.651 34.0199 105.552 33.9396 105.453C33.8013 105.282 33.6666 105.108 33.5332 104.933L39.9685 96.7734C39.7959 96.5269 39.6939 96.2276 39.6938 95.9043C39.6938 95.0643 40.3773 94.3833 41.22 94.3831Z" fill="white"/>
  <path d="M98.6908 49.263L103.419 52.2081L93.7656 53.3378C84.8677 49.0287 76.8383 40.0003 72.4531 31.813L78.0821 36.4762C86.2784 41.0296 95.9361 42.3119 98.6908 49.263Z" fill="#8099FF"/>
  <path d="M93.7597 52.1599C93.7998 49.9579 94.9729 49.3221 97.5386 49.7052C96.3371 44.5067 86.8571 42.2658 76.6367 36.9622C81.746 43.1613 86.5166 47.8977 93.7597 52.1599Z" fill="white"/>
  <path d="M86.3972 20.5211C86.9847 20.5181 87.5586 20.5744 88.1132 20.6845C88.3212 20.7258 88.5265 20.775 88.7287 20.8311C88.7961 20.8498 88.8632 20.8692 88.93 20.8895C89.0633 20.9302 89.1954 20.9739 89.3259 21.0208C89.3912 21.0442 89.4561 21.0686 89.5207 21.0936C89.6499 21.1436 89.7777 21.1965 89.9037 21.2525C90.9364 21.7116 91.8601 22.3704 92.6268 23.1789C92.6749 23.2296 92.7225 23.2809 92.7694 23.3329C92.8867 23.4628 93.0005 23.596 93.1097 23.733C93.2125 23.862 93.3111 23.9943 93.4063 24.1292C93.4312 24.1644 93.456 24.1996 93.4804 24.2351C93.6319 24.457 93.7733 24.6863 93.9036 24.9225C93.9433 24.9944 93.9818 25.0672 94.0194 25.1404C94.1578 25.4096 94.2816 25.6874 94.391 25.9723C94.475 26.1909 94.5512 26.4135 94.6171 26.6404C94.6719 26.829 94.7199 27.0205 94.7617 27.2143C94.8328 27.5446 94.8848 27.8821 94.9162 28.2255C94.9383 28.4678 94.9507 28.7131 94.9519 28.9609C94.9553 29.6197 94.8832 30.2614 94.7438 30.8778C94.6818 31.1518 94.6066 31.4208 94.5187 31.684C94.4584 31.8647 94.3914 32.0423 94.3195 32.2174C96.8959 32.8286 99.0956 34.5539 100.292 36.9233C101.419 35.502 102.992 34.448 104.803 33.9738C104.871 33.9561 104.939 33.9395 105.008 33.9233C105.625 33.7781 106.267 33.6994 106.928 33.696C107.002 33.6957 107.075 33.696 107.148 33.6975C107.951 33.7137 108.727 33.841 109.461 34.0645C109.595 34.1051 109.727 34.1488 109.857 34.1957C110.249 34.3364 110.628 34.5052 110.99 34.6993C111.111 34.764 111.231 34.8316 111.348 34.9019C113.754 36.3421 115.388 38.9342 115.479 41.9169C115.481 41.9897 115.483 42.0626 115.483 42.1358C115.484 42.209 115.483 42.282 115.482 42.3547C115.479 42.5002 115.472 42.6448 115.462 42.7885C115.452 42.9323 115.437 43.0751 115.42 43.2168C115.359 43.7124 115.256 44.1949 115.114 44.6604C115.073 44.7933 115.029 44.9249 114.982 45.055C114.864 45.3805 114.727 45.6967 114.572 46.0024C114.51 46.1247 114.445 46.2455 114.377 46.3644C114.31 46.4831 114.239 46.5999 114.166 46.715C113.983 47.0027 113.783 47.279 113.567 47.542C113.524 47.5945 113.481 47.6465 113.436 47.6979C111.885 49.5016 109.586 50.6491 107.015 50.6622C105.179 50.6715 103.476 50.1007 102.08 49.1222C102.025 49.083 101.969 49.0432 101.914 49.0028C101.712 48.8535 101.517 48.6951 101.329 48.5289C101.289 48.4935 101.249 48.4576 101.209 48.4214C101.033 48.2596 100.863 48.0908 100.701 47.9148C100.584 47.7873 100.47 47.6557 100.361 47.5212C100.299 47.4449 100.237 47.3678 100.178 47.2894C100.137 47.2351 100.096 47.1803 100.056 47.125C99.9368 46.9593 99.823 46.7893 99.7155 46.6149C99.6796 46.5568 99.6446 46.4982 99.6101 46.4391C99.5068 46.262 99.4096 46.0809 99.319 45.8959C98.8057 44.8477 98.5028 43.6781 98.465 42.4413C98.4628 42.3686 98.4614 42.2956 98.461 42.2225C98.4606 42.1493 98.461 42.0763 98.4625 42.0036C98.4728 41.4942 98.5282 40.9957 98.6249 40.512C98.6526 40.3738 98.684 40.2368 98.7184 40.101C98.916 39.3188 99.2233 38.58 99.6221 37.9008C98.6054 35.4615 96.4305 33.6884 93.8634 33.1558C93.79 33.2858 93.7143 33.4143 93.6344 33.54C93.5978 33.5976 93.5605 33.6548 93.5226 33.7114C93.4467 33.8246 93.3682 33.9359 93.2871 34.0452C93.1248 34.2638 92.9521 34.4742 92.7699 34.676C91.7345 35.8232 90.3896 36.6875 88.8654 37.1382C88.6619 37.1983 88.4553 37.2511 88.2458 37.2962C87.6777 37.4185 87.0885 37.4842 86.4841 37.4873C86.2577 37.4885 86.0334 37.4807 85.8114 37.4645C85.6098 37.4499 85.4102 37.4281 85.2127 37.3997C84.9928 37.368 84.7755 37.3285 84.5614 37.2803C84.424 37.2494 84.2878 37.2152 84.153 37.1778C83.9906 37.1328 83.8304 37.0825 83.6721 37.0283C83.5143 36.9742 83.3585 36.9159 83.2051 36.853C81.9142 36.3236 80.7822 35.4869 79.9012 34.4339C79.7267 34.2254 79.5619 34.0085 79.4078 33.7837C78.4831 32.4344 77.9389 30.805 77.9298 29.048C77.9279 28.682 77.9491 28.3211 77.9924 27.967C78.0011 27.8963 78.0108 27.8258 78.0212 27.7556C78.042 27.6151 78.0661 27.4757 78.0938 27.3376C78.1352 27.1303 78.1845 26.9257 78.2408 26.724C78.2596 26.6569 78.2791 26.59 78.2994 26.5235C78.3402 26.3905 78.3841 26.2589 78.4311 26.1288C78.6429 25.5429 78.9179 24.987 79.2474 24.4689C79.3206 24.3538 79.3964 24.2404 79.4749 24.1292C80.0247 23.3502 80.7028 22.6676 81.4786 22.1117C81.5895 22.0323 81.7022 21.9551 81.8169 21.8809C82.448 21.4732 83.1367 21.1462 83.8683 20.9153C84.0014 20.8733 84.1359 20.8345 84.2717 20.7989C84.9506 20.6211 85.6628 20.5249 86.3972 20.5211Z" fill="white"/>
  <path d="M66.8868 111.531C68.511 114.723 69.3188 118.112 69.7208 121.395C75.5793 121.684 81.0793 118.783 83.1819 112.175C83.7184 114.882 83.9933 117.795 84.1214 121.1L93.0299 124.745L85.5951 125.712L91.4296 130.443L84.1214 129.781C79.9913 129.406 77.0496 130.509 80.1054 136L63.8754 129.781C63.7669 127.136 63.6772 122.064 63.2191 119.789C64.997 120.592 66.8496 121.104 68.6844 121.31C68.2858 118.181 67.5065 114.99 65.9795 111.989L66.8868 111.531Z" fill="#A9BAFF"/>
  <path d="M30.2661 101.342C28.099 104.239 24.6352 107.98 20.0465 109.685C19.8316 109.765 19.6133 109.863 19.3852 109.893L19.3275 109.9C19.3137 116.643 24.506 123.108 31.7656 123.108L23.0509 126.386L12.8054 134.22L13.1378 126.588L3.86117 130.281C5.18098 124.772 12.2143 114.665 0.5 119.079C3.3828 113.499 6.33109 109.179 10.6948 106.114L17.6373 105.104L20.436 104.723C19.834 106.059 19.4898 107.452 19.3733 108.846C24.1426 106.82 27.3589 103.427 29.7986 100.165L30.2661 101.342Z" fill="#A9BAFF"/>
  <path d="M52.6322 1.92773C46.0239 7.0049 39.0552 13.3087 34.1256 19.5046C31.5786 22.706 29.5917 25.8586 28.474 28.7817C27.3561 31.7056 27.1272 34.3469 28.0055 36.5745L37.8386 58.8389C37.0229 57.8849 36.2413 56.9535 35.492 56.0434L27.0674 36.967L27.063 36.9576L27.0595 36.9481C26.0524 34.3968 26.3561 31.4751 27.524 28.4204C28.6929 25.3635 30.7469 22.1187 33.3282 18.8742C36.874 14.4175 41.446 9.92127 46.1767 5.86156C48.3996 4.29399 50.3508 3.06587 51.795 2.33906C52.0711 2.20011 52.3508 2.06229 52.6322 1.92773Z" fill="#A9BAFF"/>
  <path d="M46.6 37.3872L47.1634 39.485L30.6318 35.1433L46.6 37.3872Z" fill="#A9BAFF"/>
  <path d="M97.9154 38.5711L95.7775 39.4428L97.2218 37.4095L97.9154 38.5711Z" fill="#A9BAFF"/>
  <path d="M95.6632 36.3812L94.3272 38.4864L94.3217 36.1845L95.6632 36.3812Z" fill="#A9BAFF"/>
  <path d="M101.079 41.2901C107.29 37.8539 109.502 41.2484 108.386 47.1405C107.524 42.566 104.956 40.7607 101.079 41.2901Z" fill="#8099FF"/>
  <path d="M80.4053 29.5424C85.4274 26.6481 90.0001 26.7116 89.6482 33.7833C88.4289 30.1079 85.3594 28.5016 80.4053 29.5424Z" fill="#8099FF"/>
  <path d="M69.6976 121.383C70.1253 124.727 70.0576 129.386 69.8685 132.078L68.8848 131.71C69.0707 129.062 69.1113 124.576 68.6945 121.317L69.6976 121.383Z" fill="#DAE0FD"/>
  <path fill-rule="evenodd" clip-rule="evenodd" d="M59.9222 55.6767C61.9034 55.2814 63.6496 55.6653 65.0804 56.6208C66.3311 57.456 67.3161 58.7108 68.0193 60.2097C71.2342 57.7325 74.5792 57.0558 77.1344 58.1025C79.706 59.156 81.2668 61.8617 81.1067 65.7105C83.0848 65.2466 84.867 65.4742 86.2571 66.3716C87.8124 67.3758 88.7791 69.1558 89.0136 71.4804L89.0166 71.5057V71.531C89.0166 79.5246 86.1365 88.4292 81.4784 96.0696C76.8219 103.707 70.351 110.143 63.1134 113.137C51.0578 118.124 39.5881 114.063 33.1475 106.089C26.7027 98.1085 25.3051 86.2224 33.3209 75.6407L33.5634 75.3211L33.9316 75.4821C35.1218 76.0035 36.1254 76.2347 37.0339 76.2111C37.9352 76.1877 38.7809 75.9128 39.6577 75.3607C41.4451 74.2351 43.3049 72.0023 45.912 68.5372C51.2211 60.2665 56.0049 56.4585 59.9222 55.6767ZM64.514 57.4627C63.3151 56.6622 61.846 56.3268 60.1219 56.6708C56.6301 57.3677 52.0413 60.8682 46.7617 69.0967L46.7512 69.1126L46.7398 69.1274C44.1518 72.5679 42.1792 74.972 40.2013 76.2176C39.1941 76.8518 38.1725 77.1961 37.0607 77.2251C36.065 77.2509 35.0279 77.0227 33.8978 76.5679C26.4409 86.6792 27.8368 97.8956 33.94 105.453C40.111 113.094 51.1052 117.006 62.7234 112.2C69.7003 109.313 76.0244 103.062 80.6089 95.5428C85.1866 88.0343 87.9927 79.3211 87.999 71.5572C87.7828 69.4678 86.9314 68.0149 85.7041 67.2225C84.47 66.4258 82.7583 66.2337 80.7028 66.8711L79.9739 67.0976L80.045 66.3399C80.4162 62.3904 78.9314 59.9358 76.7474 59.0411C74.5288 58.1323 71.3515 58.7282 68.1455 61.4099L67.6069 61.8609L67.3461 61.2097C66.6901 59.5738 65.7231 58.2701 64.514 57.4627Z" fill="#DAE0FD"/>
  <path d="M19.3277 109.9L5.08496 111.593C5.32941 111.274 5.49436 111.046 5.78055 110.719L19.3695 108.849L19.3277 109.9Z" fill="#DAE0FD"/>
</svg>

<svg xmlns="http://www.w3.org/2000/svg" width="117" height="136" fill="none"><path fill="#A9BAFF" d="M86.718 97.453c-13.523 17.334-37.227 21.51-52.944 9.327-15.717-12.182-17.495-36.11-3.972-53.443 13.523-17.333 37.227-21.51 52.944-9.327 15.717 12.182 17.495 36.11 3.972 53.443Z"/><path fill="#8099FF" d="M33.929 59.807c12.646-16.209 34.358-20.465 48.495-9.508 14.138 10.959 15.347 32.982 2.701 49.19-11.527 14.776-35.851 18.354-48.495 9.508-10.434-8.087-13.825-22.2-9.803-35.556-.077-.157-.15-.316-.22-.477a14.616 14.616 0 0 1-.9-2.873c-1.71 4.14-4.278 11.139-2.78 21.757a35.869 35.869 0 0 1-1.455-5.159c-.238-9.306 2.607-15.288 3.942-18.544-.317-3.23.133-6.693.973-9.75a44.07 44.07 0 0 1 2.39-3.69c-1.626 3.608-2.825 8.815-2.338 13.464.14 1.337.419 2.62.862 3.8 1.453-4.23 3.659-8.356 6.628-12.162Z"/><path fill="#6CC5AE" d="M105.656 70.046 92.628 73.97l.004 30.314 6.3-1.901 2.987 1.52 3.737-33.856Z"/><path fill="#B0EBDB" d="m98.552 68.96-13.028 3.922-8.92 18.433.84 13.307 16.342.244 4.766-35.907Z"/><path fill="#fff" d="m104.045 72.822-4.789-.532-4.258 30.616 5.398-.834 3.649-29.25Z"/><path fill="#DCF6EF" d="m100.571 69.477-4.609 32.608c.93-.282 1.805-.437 2.704-.442 1.02-.005 2.024.184 3.126.548l3.828-32.145 1.775.551-4.081 34.13-1.101-.445c-1.436-.581-2.512-.829-3.538-.824-1.026.006-2.08.265-3.475.825l-1.453.583 4.749-35.948 2.075.559Z"/><path fill="#A9BAFF" d="M113.319 94.543c1.367-4.973-.883-16.9-6.246-20.423-19.383 17.154-27.028 21.727 6.246 20.423Z"/><path fill="#DAE0FD" d="M58.156.027c2.676-.291 2.397 1.824 1.754 3.607C55.965 14.57 50.873 26.59 46.6 37.386l3.855 14.289.029-.013c.1 4.126-.74 8.26-7.567 11.484 6.709-2.023 11.48-9.205 11.186-12.915 1.506-.5 3.02-.885 4.526-1.15 1.648.619 3.167 1.44 4.765 2.523a11.446 11.446 0 0 1-.46-.715c-.915-1.557-1.421-3.295-1.596-5.588-.304-3.998.146-6.964 1.584-9.38 1.42-2.385 3.76-4.163 7.082-5.89 1.78-2.459 4.555-4.11 7.773-4.986a9.533 9.533 0 0 1 8.614-5.539c4.68-.023 8.59 3.322 9.416 7.752.185.097.37.195.552.297 2.637 1.47 4.996 3.444 6.797 5.919a9.52 9.52 0 0 1 3.766-.793c5.263-.026 9.55 4.204 9.578 9.45.026 5.245-4.218 9.518-9.48 9.545a9.67 9.67 0 0 1-1.199-.069c-.71 2.722-1.853 5.64-3.495 8.75l-.115.218-16.832 3.163-.083.015-.084-.012c-.174-.025-.347-.053-.519-.08 3.26 9.732.811 22.38-7.342 32.832-.297.38-.598.752-.904 1.119 4.817 6.417 6.713 11.918 7.407 19.301-4.942 4.388-8.369 6.483-19.854 7.214-.646-5.022-2.062-9.283-4.201-14.416-5.414 2.034-10.968 2.577-16.003 1.462l.012.015-12.04 11.921c-12.773 1.063-16.694-9.286-11.33-18.386l7.582-7.79c-3.364-9.76-.939-22.513 7.274-33.039a44.298 44.298 0 0 1 3.486-3.961c-9.702-11.2-14.827-19.298-17.639-26.667-.975-7.457 22.642-26.895 30.654-30.927C53.999 1.23 56.43.215 58.156.027Z"/><path fill="#A9BAFF" d="M46.333 68.823c-5.203 6.916-7.67 9.286-12.606 7.124-15.737 20.774 5.518 46.515 29.192 36.721 14.214-5.88 25.589-25.373 25.589-41.137-.447-4.427-3.641-6.482-7.956-5.144.769-8.183-6.154-10.869-12.734-5.365-2.734-6.821-10.893-8.707-21.485 7.801Z"/><path fill="#fff" d="M65.25 100.487c.843 0 1.526.682 1.526 1.522a1.524 1.524 0 0 1-1.952 1.46l-4.299 5.67c-.326.43-.834.683-1.375.683h-3.417l-3.528 4.482a23.67 23.67 0 0 1-1.255-.048l4.287-5.449h3.913c.221 0 .43-.103.563-.279l4.284-5.652a1.51 1.51 0 0 1-.273-.867c0-.84.683-1.521 1.526-1.522ZM76.601 79.095c.843 0 1.526.68 1.526 1.52a1.524 1.524 0 0 1-1.814 1.494l-8.638 12.703c-.272.4-.7.667-1.18.736L58.5 96.702l-12.283 16.772a23.77 23.77 0 0 1-1.035-.307l12.615-17.225 6.49-9.368a1.51 1.51 0 0 1-.32-.93c0-.84.683-1.522 1.525-1.522.843 0 1.527.681 1.527 1.521a1.524 1.524 0 0 1-1.877 1.48l-5.845 8.44 7.053-1.019a.707.707 0 0 0 .483-.3l8.6-12.65a1.512 1.512 0 0 1-.358-.978c0-.84.683-1.521 1.526-1.521ZM63.282 67.998c.843 0 1.527.681 1.527 1.521a1.524 1.524 0 0 1-2.025 1.437l-13.29 17.897a.702.702 0 0 0-.125.553l1.218 6.202c.093.475-.02.967-.31 1.356l-10.309 13.798c-.29-.178-.575-.362-.856-.553l10.35-13.851a.701.701 0 0 0 .126-.555L48.371 89.6a1.715 1.715 0 0 1 .306-1.352l3.397-4.574-2.838-5.368a1.669 1.669 0 0 1 .092-1.714l2.1-3.115a1.51 1.51 0 0 1-.309-.916c0-.84.684-1.521 1.526-1.521.843 0 1.527.68 1.527 1.52a1.524 1.524 0 0 1-1.894 1.476l-2.106 3.122a.658.658 0 0 0-.036.675l2.61 4.936 9.242-12.447a1.51 1.51 0 0 1-.232-.804c0-.84.684-1.52 1.526-1.521ZM41.22 94.383c.843 0 1.526.681 1.526 1.521a1.524 1.524 0 0 1-1.95 1.46l-6.612 8.385a22.96 22.96 0 0 1-.65-.816l6.434-8.16a1.51 1.51 0 0 1-.274-.869c0-.84.683-1.52 1.526-1.52Z"/><path fill="#8099FF" d="m98.69 49.263 4.729 2.945-9.653 1.13C84.868 49.028 76.838 40 72.453 31.813l5.63 4.663c8.195 4.554 17.853 5.836 20.608 12.787Z"/><path fill="#fff" d="M93.76 52.16c.04-2.202 1.213-2.838 3.779-2.455-1.202-5.198-10.682-7.44-20.902-12.743 5.109 6.2 9.88 10.936 17.123 15.198ZM86.397 20.521a8.58 8.58 0 0 1 2.929.5 8.267 8.267 0 0 1 .578.232 8.533 8.533 0 0 1 4.713 5.387 8.417 8.417 0 0 1 .335 2.32 8.483 8.483 0 0 1-.433 2.724c-.06.18-.128.358-.2.533a9.042 9.042 0 0 1 5.973 4.706 8.516 8.516 0 0 1 9.169-2.858 8.414 8.414 0 0 1 1.887.837 8.473 8.473 0 0 1 2.818 11.813 8.441 8.441 0 0 1-.73.983 8.502 8.502 0 0 1-6.421 2.964 8.493 8.493 0 0 1-4.935-1.54 8.614 8.614 0 0 1-2.761-3.226 8.421 8.421 0 0 1-.856-3.892 8.479 8.479 0 0 1 .255-1.903 8.414 8.414 0 0 1 .904-2.2 8.013 8.013 0 0 0-5.759-4.745 8.567 8.567 0 0 1-.576.89 8.516 8.516 0 0 1-8.726 3.235 8.52 8.52 0 0 1-1.356-.428 8.534 8.534 0 0 1-3.797-3.07 8.425 8.425 0 0 1-1.478-4.735 8.54 8.54 0 0 1 .31-2.324 9.045 9.045 0 0 1 .191-.595 8.44 8.44 0 0 1 1.044-2 8.546 8.546 0 0 1 4.797-3.33 8.555 8.555 0 0 1 2.125-.278Z"/><path fill="#A9BAFF" d="M66.887 111.531c1.624 3.192 2.432 6.581 2.834 9.864 5.858.289 11.358-2.612 13.46-9.22.537 2.707.812 5.62.94 8.925l8.909 3.645-7.435.967 5.835 4.731-7.309-.662c-4.13-.375-7.071.728-4.016 6.219l-16.23-6.219c-.108-2.645-.198-7.717-.656-9.992a18.277 18.277 0 0 0 5.465 1.521c-.398-3.129-1.177-6.32-2.704-9.321l.907-.458ZM30.266 101.342c-2.167 2.897-5.63 6.638-10.22 8.343-.214.08-.433.178-.66.208l-.058.007c-.014 6.743 5.178 13.208 12.438 13.208l-8.715 3.278-10.246 7.834.333-7.632-9.277 3.693c1.32-5.509 8.353-15.616-3.361-11.202 2.883-5.58 5.831-9.9 10.195-12.965l6.942-1.01 2.799-.381a12.559 12.559 0 0 0-1.063 4.123c4.77-2.026 7.986-5.419 10.426-8.681l.467 1.177ZM52.632 1.928c-6.608 5.077-13.577 11.38-18.506 17.577-2.547 3.201-4.534 6.354-5.652 9.277-1.118 2.924-1.347 5.565-.468 7.793l9.833 22.264a196.153 196.153 0 0 1-2.347-2.796l-8.425-19.076-.004-.01-.003-.009c-1.008-2.551-.704-5.473.464-8.528 1.169-3.057 3.223-6.301 5.804-9.546 3.546-4.456 8.118-8.953 12.849-13.012 2.223-1.568 4.174-2.796 5.618-3.523.276-.139.556-.277.837-.411Z"/><path fill="#A9BAFF" d="m46.6 37.387.563 2.098-16.531-4.342L46.6 37.387ZM97.915 38.571l-2.138.872 1.445-2.033.693 1.161ZM95.663 36.381l-1.336 2.105-.005-2.301 1.341.196Z"/><path fill="#8099FF" d="M101.079 41.29c6.211-3.436 8.423-.042 7.307 5.85-.862-4.574-3.43-6.38-7.307-5.85ZM80.405 29.542c5.022-2.894 9.595-2.83 9.243 4.241-1.22-3.675-4.289-5.281-9.243-4.24Z"/><path fill="#DAE0FD" d="M69.698 121.383c.427 3.344.36 8.003.17 10.695l-.983-.368c.186-2.648.226-7.134-.19-10.393l1.003.066Z"/><path fill="#DAE0FD" fill-rule="evenodd" d="M59.922 55.677c1.981-.396 3.728-.012 5.158.944 1.251.835 2.236 2.09 2.94 3.589 3.214-2.477 6.56-3.154 9.114-2.108 2.572 1.054 4.133 3.76 3.973 7.608 1.978-.463 3.76-.236 5.15.662 1.555 1.004 2.522 2.784 2.757 5.108l.003.026v.025c0 7.994-2.88 16.898-7.539 24.539-4.656 7.637-11.127 14.073-18.365 17.067-12.055 4.987-23.525.926-29.965-7.048-6.445-7.98-7.843-19.867.173-30.448l.242-.32.369.161c1.19.522 2.193.753 3.102.73.901-.024 1.747-.3 2.624-.851 1.787-1.126 3.647-3.359 6.254-6.824 5.31-8.27 10.093-12.079 14.01-12.86Zm4.592 1.786c-1.199-.8-2.668-1.136-4.392-.792-3.492.697-8.08 4.197-13.36 12.426l-.01.016-.012.014c-2.588 3.44-4.56 5.845-6.539 7.09-1.007.635-2.029.98-3.14 1.008-.996.026-2.033-.202-3.163-.657-7.457 10.111-6.061 21.328.042 28.885 6.171 7.641 17.165 11.553 28.783 6.747 6.977-2.887 13.301-9.138 17.886-16.657 4.578-7.509 7.384-16.222 7.39-23.986-.216-2.09-1.068-3.542-2.295-4.335-1.234-.796-2.946-.988-5.001-.35l-.73.226.072-.758c.371-3.95-1.114-6.404-3.298-7.299-2.218-.909-5.395-.313-8.602 2.369l-.538.45-.26-.65c-.657-1.636-1.624-2.94-2.833-3.747Z" clip-rule="evenodd"/><path fill="#DAE0FD" d="m19.328 109.9-14.243 1.693c.244-.319.41-.547.696-.874l13.588-1.87-.041 1.051Z"/></svg>
